X: 58
T: David Poer, Esqr
T: David Poer, Esquire
C: Carolan
%R: reel
B: "The Hibernian Muse" p.36
F: http://imslp.org/wiki/The_Hibernian_Muse_%28Various%29
Z: 2015 John Chambers <jc:trillian.mit.edu>
P: No. LVIII.
M: C
L: 1/8
K: F
% - - - - - - - - - - - - - - - - - - - - - - - - - - - - -
V: 1
[|\
fgfg f2c2 | fgaf gabg | c'afa gece | fgfg f2c2 | gaga g2d2 | affg aff2 |
(g/a/b/a/) gf efge | fcAF GABG | ABcA Bcdc | Bdcf efge | f2fg [f4c4A4] |]| (a/b/c'/b/) ag fgfc | fgfc defg |
dBfB dBBf | ecgc eccB | AF A/B/c AFFc | BG (B/c/d) BGG2 | (d/e/f) (e/f/g) (d/e/f) (e/f/g) | Tf2fc Tf2fc |
(3(dfd) fb (3(dfd) fb | c'bag Tf2c2 | AFcF AFFc | BGdG BGG2 | efg2 fed2 | cBAG Ff gf/e/ | [f8c8A8] |]
% - - - - - - - - - - - - - - - - - - - - - - - - - - - - -
V: 2 clef=bass middle=d
[|\
f6 g2 | a2f2 e2c2 | f2F2 c4 | f4 a4 | b4 g4 | f4 f2a2 |
b2g2 c'2c2 | f4 e2c2 | f4 g2a2 | b2ab c'2c2 |f2c2 F4 |]| f4 a2f2 | a2f2 b4 |
B4 B4 | c4 c4 | f4 F4 | g4 G4 | b2c2 B2c2 | f4 a4 |
b4 B4 | e2c2 f2F2 | f4 F4 | g4 G4 | c2Bc d3e | f2g2 a2c'2 | f4 F4 |]
